svg/Pictogram/pictograms-aem-0084-never_step_on_or_into_area_where_parts_are_in_motion.svg

<?xml version="1.0" encoding="ISO-8859-1" standalone="yes"?>
<svg height="304.014" width="304.015">
  <metadata>
    <rdf:RDF xmlns:cc="http://web.resource.org/cc/" xmlns:dc="http://purl.org/dc/elements/1.1/" xmlns:rdf="http://www.w3.org/1999/02/22-rdf-syntax-ns#">
      <cc:Work rdf:about="">
        <dc:title></dc:title>
        <dc:description></dc:description>
        <dc:subject>
          <rdf:Bag>
            <rdf:li></rdf:li>
          </rdf:Bag>
        </dc:subject>
        <dc:publisher>
          <cc:Agent rdf:about="http://www.unece.org/trans/danger/publi/ghs/pictograms.html">
            <dc:title>Source: UNECE GHS of Classification and Labeling of Chemicals, Source: AEM Pictorial Database, Source: AEM Pictorial Database, Source: AEM Pictorial Database, Source: AEM Pictorial Database</dc:title>
          </cc:Agent>
        </dc:publisher>
        <dc:creator>
          <cc:Agent>
            <dc:title></dc:title>
          </cc:Agent>
        </dc:creator>
        <dc:rights>
          <cc:Agent>
            <dc:title></dc:title>
          </cc:Agent>
        </dc:rights>
        <dc:date></dc:date>
        <dc:format>image/svg+xml</dc:format>
        <dc:type rdf:resource="http://purl.org/dc/dcmitype/StillImage"/>
        <cc:license rdf:resource="http://en.wikipedia.org/wiki/Public_domain"/>
        <dc:language>en</dc:language>
      </cc:Work>
    </rdf:RDF>
  </metadata>
  <defs><marker id="ArrowEnd" markerHeight="3" markerUnits="strokeWidth" markerWidth="4" orient="auto" refX="0" refY="5" viewBox="0 0 10 10"><path d="M 0 0 L 10 5 L 0 10 z"/></marker><marker id="ArrowStart" markerHeight="3" markerUnits="strokeWidth" markerWidth="4" orient="auto" refX="10" refY="5" viewBox="0 0 10 10"><path d="M 10 0 L 0 5 L 10 10 z"/></marker> </defs>
  <g id="g2958" transform="matrix(1.3532768,0,0,1.3532781,-53.207834,-52.192858)">
    <path d="M 107.065 100.463C 113.71 102.456 120.71 98.6824 122.702 92.0384C 124.694 85.3934 120.925 78.3934 114.276 76.4014C 107.632 74.4094 100.632 78.1784 98.6404 84.8234C 96.6474 91.4674 100.421 98.4714 107.065 100.463" style="stroke:none; fill-rule:evenodd; fill:#000000"/>
    <path d="M 78.9834 169.041L 80.4134 186.799L 67.9374 219.502C 66.6984 223.268 68.7494 227.327 72.5114 228.565C 76.2764 229.803 80.3354 227.756 81.5734 223.991L 93.5304 192.643C 94.5304 191.276 95.0624 189.553 94.8904 187.733L 92.6324 159.831L 96.3314 160.94C 96.4294 160.967 96.5264 160.987 96.6244 161.01C 96.6514 161.014 96.6834 161.026 96.7104 161.03C 97.3474 161.186 97.9914 161.252 98.6204 161.233L 115.522 161.616L 100.96 147.065L 78.9834 169.041" style="stroke:none; fill-rule:evenodd; fill:#000000"/>
    <path d="M 144.147 155.342C 144.147 155.315 144.147 155.288 144.147 155.26C 144.147 155.237 144.151 155.209 144.155 155.182C 144.155 155.1 144.151 155.014 144.151 154.932C 144.151 154.788 144.151 154.647 144.144 154.506C 144.14 154.424 144.132 154.35 144.124 154.272C 144.108 154.104 144.093 153.936 144.065 153.768C 144.058 153.721 144.046 153.67 144.034 153.62C 144.003 153.432 143.964 153.245 143.913 153.057C 143.905 153.034 143.897 153.01 143.894 152.987C 143.835 152.776 143.769 152.573 143.694 152.374C 143.69 152.37 143.69 152.37 143.69 152.37C 142.722 149.807 140.327 147.92 137.417 147.745C 137.167 147.729 136.917 147.725 136.671 147.737L 119.73 147.354L 143.28 170.885L 144.147 155.342" style="stroke:none; fill-rule:evenodd; fill:#000000"/>
    <path d="M 128.683 174.768L 127.843 189.85C 127.601 193.807 130.612 197.209 134.569 197.452C 138.526 197.694 141.929 194.678 142.171 190.721L 142.87 178.194L 137.476 183.553L 128.683 174.768" style="stroke:none; fill-rule:evenodd; fill:#000000"/>
    <path d="M 155.218 136.733L 130.304 131.17L 125.23 122.795L 114.78 133.248L 119.007 140.233C 119.874 142.315 121.702 143.959 124.069 144.491L 152.089 150.745C 155.956 151.608 159.796 149.17 160.655 145.303C 161.522 141.432 159.085 137.596 155.218 136.733" style="stroke:none; fill-rule:evenodd; fill:#000000"/>
    <path d="M 110.628 138.256L 110.995 137.034L 110.198 137.831L 110.628 138.256" style="stroke:none; fill-rule:evenodd; fill:#000000"/>
    <path d="M 118.265 111.291L 116.952 109.127C 116.519 108.409 115.972 107.799 115.354 107.295C 115.339 107.28 115.319 107.268 115.304 107.252C 115.159 107.139 115.019 107.03 114.87 106.928C 114.776 106.866 114.683 106.803 114.589 106.745C 114.511 106.698 114.433 106.651 114.354 106.608C 114.187 106.51 114.015 106.42 113.839 106.338C 113.831 106.334 113.823 106.331 113.819 106.327C 113.499 106.178 113.171 106.041 112.823 105.94L 99.0734 101.815C 97.2184 101.26 95.3194 101.495 93.7264 102.315L 78.5424 106.194L 100.956 128.596L 118.261 111.291" style="stroke:none; fill-rule:evenodd; fill:#000000"/>
    <path d="M 83.3044 129.42L 77.8544 147.604C 77.5464 148.502 77.4134 149.471 77.4954 150.471C 77.5034 150.569 77.5074 150.67 77.5154 150.768C 77.5194 150.784 77.5194 150.803 77.5224 150.823L 77.6124 151.944L 91.7224 137.831L 83.3084 129.416" style="stroke:none; fill-rule:evenodd; fill:#000000"/>
    <path d="M 62.0384 115.416L 59.8124 151.233C 59.5694 155.186 62.5774 158.592 66.5304 158.838C 70.4874 159.084 73.8944 156.077 74.1404 152.12L 76.0034 122.124L 64.4054 110.534C 63.0584 111.745 62.1594 113.459 62.0384 115.416" style="stroke:none; fill-rule:evenodd; fill:#000000"/>
    <path d="M 146.753 101.272L 137.487 92.0654L 118.265 111.291L 100.96 128.596L 78.5424 106.194L 64.3744 92.0384L 55.1124 101.245L 64.4094 110.534L 76.0034 122.124L 83.3084 129.42L 91.7224 137.831L 77.6124 151.944L 55.2104 174.346L 64.4724 183.553L 78.9834 169.041L 100.96 147.065L 115.522 161.616L 128.683 174.768L 137.476 183.553L 142.866 178.194L 146.741 174.346L 143.276 170.885L 119.73 147.354L 110.628 138.256L 110.198 137.827L 110.995 137.03L 114.776 133.248L 125.23 122.795L 146.753 101.272" style="stroke:none; fill-rule:evenodd; fill:#ff3e3e"/>
    <path d="M 221.183 200.92L 187.147 200.92L 187.147 203.659L 187.175 206.416L 222.538 206.416L 221.214 206.459C 230.12 206.459 237.343 213.682 237.343 222.588C 237.343 231.495 230.12 238.717 221.214 238.717L 221.675 238.76L 118.171 238.76L 118.226 238.717C 109.319 238.717 102.097 231.498 102.097 222.588C 102.097 213.682 109.319 206.459 118.226 206.459L 117.651 206.416L 168.542 206.416L 152.749 215.577L 155.378 220.092L 183.538 203.741L 183.694 203.741L 183.616 203.698L 183.64 203.682L 183.597 203.682L 155.64 187.014L 152.968 191.506L 168.753 200.92L 118.194 200.92C 106.233 200.92 96.5344 210.616 96.5344 222.577C 96.5344 234.538 106.233 244.237 118.194 244.237L 221.183 244.237C 233.144 244.237 242.839 234.538 242.839 222.577C 242.839 210.616 233.144 200.92 221.183 200.92" style="stroke:none; fill-rule:evenodd; fill:#000000"/>
    <path d="M 240.792 138.741L 236.702 142.596C 240.784 146.987 243.284 152.874 243.284 159.342C 243.284 172.928 232.269 183.944 218.683 183.944C 205.097 183.944 194.081 172.928 194.081 159.342C 194.081 152.725 196.706 146.725 200.956 142.303L 198.065 161.44L 203.23 162.213L 208.112 129.897L 177.593 141.311L 179.421 146.206L 195.194 140.35C 190.991 145.541 188.464 152.143 188.464 159.342C 188.464 176.034 201.991 189.565 218.683 189.565C 235.374 189.565 248.905 176.034 248.905 159.342C 248.905 151.381 245.823 144.135 240.792 138.741" style="stroke:none; fill-rule:evenodd; fill:#000000"/>
    <path d="M 218.175 59.7804C 201.487 59.9364 188.081 73.5924 188.237 90.2804C 188.304 97.4794 190.894 104.057 195.144 109.209L 179.319 103.502L 177.534 108.413L 208.159 119.541L 202.976 87.2724L 197.819 88.0964L 200.89 107.206C 196.597 102.823 193.921 96.8464 193.858 90.2254C 193.73 76.6434 204.644 65.5264 218.23 65.4014C 231.815 65.2724 242.929 76.1824 243.058 89.7724C 243.116 96.2414 240.675 102.151 236.632 106.581L 240.757 110.397C 245.737 104.952 248.753 97.6784 248.679 89.7174C 248.522 73.0304 234.866 59.6244 218.175 59.7804" style="stroke:none; fill-rule:evenodd; fill:#000000"/>
    <path d="M 29.6204 265.393L 2.62042 265.393" style="stroke:#000000; stroke-width:0.5; fill:none"/>
    <path d="M 38.6204 274.393L 38.6204 301.393" style="stroke:#000000; stroke-width:0.5; fill:none"/>
    <path d="M 29.6204 38.6204L 2.62042 38.6204" style="stroke:#000000; stroke-width:0.5; fill:none"/>
    <path d="M 38.6204 29.6204L 38.6204 2.62042" style="stroke:#000000; stroke-width:0.5; fill:none"/>
    <path d="M 274.394 38.6204L 301.394 38.6204" style="stroke:#000000; stroke-width:0.5; fill:none"/>
    <path d="M 265.394 29.6204L 265.394 2.62042" style="stroke:#000000; stroke-width:0.5; fill:none"/>
    <path d="M 274.394 265.393L 301.394 265.393" style="stroke:#000000; stroke-width:0.5; fill:none"/>
    <path d="M 265.394 274.393L 265.394 301.393" style="stroke:#000000; stroke-width:0.5; fill:none"/>
  </g>
</svg>

<svg viewBox="0 0 304.01 304.01"><g transform="matrix(1.35328 0 0 1.35328-53.21-52.19)" fill-rule="evenodd"><path d="m107.06 100.46c6.645 1.993 13.645-1.781 15.637-8.425 1.992-6.645-1.777-13.645-8.426-15.637-6.644-1.992-13.644 1.777-15.636 8.422-1.993 6.644 1.781 13.648 8.425 15.64"/><path d="m78.983 169.04l1.43 17.758-12.476 32.703c-1.239 3.766.812 7.825 4.574 9.06 3.765 1.238 7.824-.809 9.06-4.574l11.957-31.348c1-1.367 1.532-3.09 1.36-4.91l-2.258-27.902 3.699 1.109c.098.027.195.047.293.07.027.004.059.016.086.02.637.156 1.281.222 1.91.203l16.902.383-14.562-14.551-21.977 21.976"/><path d="m144.15 155.34c0-.027 0-.054 0-.082 0-.023.004-.051.008-.078 0-.082-.004-.168-.004-.25 0-.144 0-.285-.007-.426-.004-.082-.012-.156-.02-.234-.016-.168-.031-.336-.059-.504-.007-.047-.019-.098-.031-.148-.031-.188-.07-.375-.121-.563-.008-.023-.016-.047-.019-.07-.059-.211-.125-.414-.2-.613-.004-.004-.004-.004-.004-.004-.968-2.563-3.363-4.45-6.273-4.625-.25-.016-.5-.02-.746-.008l-16.941-.383 23.55 23.531.867-15.543"/><path d="m128.68 174.77l-.84 15.08c-.242 3.957 2.769 7.359 6.726 7.602 3.957.242 7.36-2.774 7.602-6.731l.699-12.527-5.394 5.359-8.793-8.785"/><path d="m155.22 136.73l-24.914-5.563-5.074-8.375-10.45 10.453 4.227 6.985c.867 2.082 2.695 3.726 5.062 4.258l28.02 6.254c3.867.863 7.707-1.575 8.566-5.442.867-3.871-1.57-7.707-5.437-8.57"/><path d="m110.63 138.26l.367-1.222-.797.797.43.425"/><path d="m118.27 111.29l-1.313-2.164c-.433-.718-.98-1.328-1.598-1.832-.015-.015-.035-.027-.05-.043-.145-.113-.285-.222-.434-.324-.094-.062-.187-.125-.281-.183-.078-.047-.156-.094-.235-.137-.167-.098-.339-.188-.515-.27-.008-.004-.016-.007-.02-.011-.32-.149-.648-.286-.996-.387l-13.75-4.125c-1.855-.555-3.754-.32-5.347.5l-15.184 3.879 22.414 22.402 17.305-17.305"/><path d="m83.3 129.42l-5.45 18.18c-.308.898-.441 1.867-.359 2.867.008.098.012.199.02.297.004.016.004.035.007.055l.09 1.121 14.11-14.11-8.414-8.415"/><path d="m62.04 115.42l-2.226 35.817c-.243 3.953 2.765 7.359 6.718 7.605 3.957.246 7.364-2.761 7.61-6.718l1.863-29.996-11.598-11.59c-1.347 1.211-2.246 2.925-2.367 4.882"/><path d="m146.75 101.27l-9.266-9.207-19.222 19.226-17.305 17.305-22.418-22.402-14.168-14.156-9.262 9.207 9.297 9.289 11.594 11.59 7.305 7.296 8.414 8.411-14.11 14.11-22.402 22.402 9.262 9.207 14.511-14.512 21.977-21.976 14.562 14.551 13.161 13.152 8.793 8.785 5.39-5.359 3.875-3.848-3.465-3.461-23.546-23.531-9.102-9.1-.43-.429.797-.797 3.781-3.782 10.454-10.453 21.523-21.523" fill="#ff3e3e"/><path d="m221.18 200.92h-34.04v2.739l.028 2.757h35.36l-1.324.043c8.906 0 16.13 7.223 16.13 16.13 0 8.907-7.223 16.13-16.13 16.13l.461.043h-103.5l.055-.043c-8.907 0-16.13-7.219-16.13-16.13 0-8.906 7.222-16.13 16.13-16.13l-.575-.043h50.891l-15.793 9.161 2.629 4.515 28.16-16.351h.156l-.078-.043.024-.016h-.043l-27.957-16.668-2.672 4.492 15.785 9.414h-50.559c-11.961 0-21.66 9.696-21.66 21.657 0 11.961 9.699 21.66 21.66 21.66h102.99c11.961 0 21.656-9.699 21.656-21.66 0-11.961-9.695-21.657-21.656-21.657"/><path d="m240.79 138.74l-4.09 3.855c4.082 4.391 6.582 10.278 6.582 16.746 0 13.586-11.01 24.602-24.601 24.602-13.586 0-24.602-11.02-24.602-24.602 0-6.617 2.625-12.617 6.875-17.04l-2.891 19.14 5.165.773 4.882-32.32-30.519 11.414 1.828 4.895 15.773-5.856c-4.203 5.191-6.73 11.793-6.73 18.992 0 16.692 13.527 30.22 30.22 30.22 16.691 0 30.22-13.531 30.22-30.22 0-7.961-3.082-15.207-8.113-20.601"/><path d="m218.18 59.78c-16.688.156-30.09 13.812-29.938 30.5.067 7.199 2.657 13.777 6.907 18.929l-15.825-5.707-1.785 4.911 30.625 11.128-5.183-32.27-5.157.824 3.071 19.11c-4.293-4.383-6.969-10.36-7.03-16.981-.128-13.582 10.786-24.699 24.372-24.824 13.585-.129 24.699 10.781 24.828 24.371.058 6.469-2.383 12.379-6.426 16.809l4.125 3.816c4.98-5.445 7.996-12.719 7.922-20.68-.157-16.687-13.813-30.09-30.504-29.937"/></g></svg>
